src/assets/filled/ReceiptDiscount.svg

<?xml version="1.0" encoding="UTF-8"?>
<svg width="24" height="24" viewBox="0 0 24 24" xmlns="http://www.w3.org/2000/svg">
 <path d="m7 2h-1c-3 0-4 1.79-4 4v15c0 0.83 0.94 1.3 1.6 0.8l1.71-1.28c0.4-0.3 0.96-0.26 1.32 0.1l1.66 1.67c0.39 0.39 1.03 0.39 1.42 0l1.68-1.68c0.35-0.35 0.91-0.39 1.3-0.09l1.71 1.28c0.66 0.49 1.6 0.02 1.6-0.8v-17c0-1.1 0.9-2 2-2h-11zm-0.43 6.03c0.55 0 1 0.45 1 1s-0.45 1-1 1-1-0.45-1-1 0.45-1 1-1zm4.86 6.05c-0.56 0-1-0.45-1-1s0.45-1 1-1 1 0.45 1 1-0.45 1-1 1zm0.83-5.28-5.46 5.46c-0.15 0.15-0.34 0.22-0.53 0.22s-0.38-0.07-0.53-0.22c-0.29-0.29-0.29-0.77 0-1.06l5.46-5.46c0.29-0.29 0.77-0.29 1.06 0s0.29 0.77 0 1.06z"/>
 <path d="m18.01 2v1.5c0.66 0 1.29 0.27 1.75 0.72 0.48 0.49 0.74 1.12 0.74 1.78v2.42c0 0.74-0.33 1.08-1.08 1.08h-1.92v-5.49c0-0.28 0.23-0.51 0.51-0.51v-1.5zm0 0c-1.11 0-2.01 0.9-2.01 2.01v6.99h3.42c1.58 0 2.58-1 2.58-2.58v-2.42c0-1.1-0.45-2.1-1.17-2.83-0.73-0.72-1.72-1.16-2.82-1.17 0.01 0 0 0 0 0z"/>
</svg>

<svg width="24" height="24" viewBox="0 0 24 24"  xmlns="http://www.w3.org/2000/svg">
<path d="M7 2H6C3 2 2 3.79 2 6V7V21C2 21.83 2.94 22.3 3.6 21.8L5.31 20.52C5.71 20.22 6.27 20.26 6.63 20.62L8.29 22.29C8.68 22.68 9.32 22.68 9.71 22.29L11.39 20.61C11.74 20.26 12.3 20.22 12.69 20.52L14.4 21.8C15.06 22.29 16 21.82 16 21V4C16 2.9 16.9 2 18 2H7ZM6.57 8.03C7.12 8.03 7.57 8.48 7.57 9.03C7.57 9.58 7.12 10.03 6.57 10.03C6.02 10.03 5.57 9.58 5.57 9.03C5.57 8.48 6.02 8.03 6.57 8.03ZM11.43 14.08C10.87 14.08 10.43 13.63 10.43 13.08C10.43 12.53 10.88 12.08 11.43 12.08C11.98 12.08 12.43 12.53 12.43 13.08C12.43 13.63 11.98 14.08 11.43 14.08ZM12.26 8.8L6.8 14.26C6.65 14.41 6.46 14.48 6.27 14.48C6.08 14.48 5.89 14.41 5.74 14.26C5.45 13.97 5.45 13.49 5.74 13.2L11.2 7.74C11.49 7.45 11.97 7.45 12.26 7.74C12.55 8.03 12.55 8.51 12.26 8.8Z" />
<path d="M18.01 2V3.5C18.67 3.5 19.3 3.77 19.76 4.22C20.24 4.71 20.5 5.34 20.5 6V8.42C20.5 9.16 20.17 9.5 19.42 9.5H17.5V4.01C17.5 3.73 17.73 3.5 18.01 3.5V2ZM18.01 2C16.9 2 16 2.9 16 4.01V11H19.42C21 11 22 10 22 8.42V6C22 4.9 21.55 3.9 20.83 3.17C20.1 2.45 19.11 2.01 18.01 2C18.02 2 18.01 2 18.01 2Z" />
</svg>
